x-pack/platform/plugins/shared/index_management/public/assets/ruby.svg

<svg width="128" height="128" viewBox="0 0 128 128" fill="none" xmlns="http://www.w3.org/2000/svg">
<path fill-rule="evenodd" clip-rule="evenodd" d="M35.0844 111.372L119.636 122.634C109.966 106.925 100.544 91.6174 91.0463 76.1852L35.0844 111.372ZM127.634 24.4188C125.136 28.0788 122.633 31.7358 120.139 35.3978C111.571 47.9724 103.007 60.5499 94.4476 73.1302C93.971 73.8307 93.353 74.3864 94.0246 75.4665C102.294 88.7908 110.499 102.154 118.724 115.506C120.022 117.615 121.335 119.716 123.013 121.739L128 24.5215L127.634 24.4188ZM14.7413 65.9642C15.1281 66.3215 16.0938 66.5299 16.5436 66.3135C24.4759 62.5095 32.4588 58.7901 40.2179 54.6731C42.7485 53.3313 44.6942 50.9256 46.8741 48.9748C54.0925 42.5154 61.2997 36.043 68.5037 29.5696C68.9442 29.1719 69.4662 28.7874 69.7293 28.2861C72.3167 23.3518 74.8597 18.3923 77.4924 13.2898C74.3531 12.1383 71.3768 11.0119 68.3634 9.98716C67.9548 9.84825 67.3111 10.1241 66.8685 10.3646C59.8935 14.1666 52.7875 17.7662 46.0343 21.9123C42.6557 23.9869 39.9032 27.044 36.9114 29.7065C32.0895 34.0006 27.2738 38.3048 22.522 42.6735C21.2542 43.8463 20.1172 45.1467 19.1299 46.5529C15.8802 51.1702 12.7275 55.8539 9.43032 60.6705C11.2728 62.5297 12.9482 64.3073 14.7413 65.9642ZM43.7327 59.6518L31.8109 108.797L87.8296 73.5791L43.7327 59.6518ZM122.789 24.5758L75.1785 32.3367L91.3362 70.6841C101.881 55.2237 112.217 40.0734 122.789 24.5758ZM44.395 56.325L87.6129 70.0147C82.1968 57.1403 76.9663 44.7159 71.6275 32.0287L44.395 56.325ZM15.3386 75.4494L0.21252 110.729L29.0214 109.898L15.3386 75.4494ZM29.3618 101.718L29.7188 101.641C33.1779 87.6081 36.6865 73.6717 40.2179 59.0901L17.1058 70.811C21.0457 80.8025 25.2466 91.3426 29.3618 101.718ZM116.977 22.2999C112.377 21.1111 107.777 19.9183 103.174 18.7375C96.5594 17.0404 89.9393 15.3644 83.3285 13.6522C82.5021 13.4378 81.9048 13.2979 81.4189 14.2692C79.0822 18.9399 76.6733 23.5753 74.2995 28.2288C74.2262 28.3727 74.2417 28.5589 74.185 28.9203L116.968 22.5938L116.977 22.2999ZM90.289 11.6762L127.782 21.7966L121.587 4.57367L90.3437 11.333L90.289 11.6762ZM32.5403 114.067C27.8969 113.544 23.1296 114.024 18.4201 114.104C14.5514 114.167 10.6827 114.311 6.81405 114.429C6.41583 114.441 6.01865 114.52 5.62146 114.938C37.6057 117.823 69.589 120.708 101.572 123.595L101.637 123.178L70.8785 119.081C58.1026 117.379 45.3483 115.507 32.5403 114.067ZM0.844922 99.9611C4.96637 90.6299 9.07027 81.2927 13.2082 71.9685C13.6219 71.0334 13.5899 70.3982 12.7801 69.6453C11.049 68.0378 9.44063 66.3054 7.54859 64.3848C4.99113 76.7056 2.49659 88.7214 0 100.736L0.279577 100.864C0.470433 100.565 0.703586 100.282 0.844922 99.9611ZM82.0771 9.21308C89.0273 7.46361 96.0787 6.09565 103.089 4.56964C103.543 4.46999 103.986 4.32403 104.433 4.19921L104.364 3.86502L74.2458 7.81895C77.0736 9.02385 79.2524 9.92374 82.0771 9.21308Z" fill="#D91404"/>
</svg>

<svg xmlns="http://www.w3.org/2000/svg" width="128" height="128" fill="none"><path fill="#D91404" fill-rule="evenodd" d="m35.084 111.372 84.552 11.262-28.59-46.449zm92.55-86.953c-2.498 3.66-5.001 7.317-7.495 10.979A67327 67327 0 0 0 94.448 73.13c-.477.7-1.095 1.256-.423 2.337 8.269 13.324 16.474 26.687 24.699 40.039 1.298 2.109 2.611 4.21 4.289 6.233L128 24.522zM14.741 65.964c.387.358 1.353.566 1.803.35 7.932-3.804 15.915-7.524 23.674-11.64 2.53-1.343 4.476-3.748 6.656-5.7 7.218-6.459 14.426-12.931 21.63-19.404.44-.398.962-.783 1.225-1.284 2.588-4.934 5.13-9.894 7.763-14.996-3.139-1.152-6.115-2.278-9.129-3.303-.408-.139-1.052.137-1.495.378-6.974 3.802-14.08 7.401-20.834 11.547-3.378 2.075-6.13 5.132-9.123 7.794-4.821 4.295-9.637 8.599-14.389 12.967a24.3 24.3 0 0 0-3.392 3.88c-3.25 4.617-6.402 9.3-9.7 14.118 1.843 1.859 3.518 3.636 5.311 5.293m28.992-6.312L31.81 108.797 87.83 73.579zm79.056-35.076-47.61 7.76 16.157 38.348zM44.395 56.325l43.218 13.69c-5.416-12.875-10.647-25.3-15.986-37.986zM15.339 75.449.213 110.73l28.808-.831zm14.023 26.269.357-.077c3.459-14.033 6.968-27.97 10.499-42.55L17.106 70.81c3.94 9.991 8.14 20.532 12.256 30.907M116.977 22.3c-4.6-1.189-9.2-2.382-13.803-3.562-6.615-1.698-13.235-3.374-19.845-5.086-.827-.214-1.424-.354-1.91.617-2.337 4.67-4.746 9.306-7.12 13.96-.073.144-.057.33-.114.691l42.783-6.326zM90.289 11.676l37.493 10.12-6.195-17.222-31.243 6.759zM32.54 114.067c-4.643-.523-9.41-.043-14.12.037-3.869.063-7.737.207-11.606.325-.398.012-.795.091-1.193.509q47.977 4.327 95.951 8.657l.065-.417-30.758-4.097c-12.776-1.702-25.53-3.574-38.339-5.014M.845 99.961C4.966 90.63 9.07 81.293 13.208 71.97c.414-.936.382-1.57-.428-2.324-1.731-1.607-3.34-3.34-5.231-5.26C4.99 76.705 2.497 88.72 0 100.736l.28.128c.19-.299.424-.582.565-.903M82.077 9.213c6.95-1.75 14.002-3.117 21.012-4.643.454-.1.897-.246 1.344-.37l-.069-.335-30.118 3.954c2.828 1.205 5.006 2.105 7.831 1.394" clip-rule="evenodd"/></svg>
